style-guide/assets/xd-icons-radio-empty-tiny.svg

<svg viewBox="0 0 12 12" xmlns="http://www.w3.org/2000/svg">
  <path d="M6 2C3.794 2 2 3.795 2 6c0 2.206 1.794 4 4 4s4-1.794 4-4c0-2.205-1.794-4-4-4m0 10c-3.309 0-6-2.691-6-6s2.691-6 6-6 6 2.691 6 6-2.691 6-6 6"/>
</svg>

<?xml version="1.0" encoding="UTF-8"?>
<svg width="12px" height="12px" viewBox="0 0 12 12" version="1.1" xmlns="http://www.w3.org/2000/svg" xmlns:xlink="http://www.w3.org/1999/xlink">
    <!-- Generator: Sketch 51.3 (57544) - http://www.bohemiancoding.com/sketch -->
    <title>radio empty</title>
    <desc>Created with Sketch.</desc>
    <defs></defs>
    <g id="radio-empty" stroke="none" stroke-width="1" fill="none" fill-rule="evenodd">
        <path d="M6,2 C3.794,2 2,3.795 2,6 C2,8.206 3.794,10 6,10 C8.206,10 10,8.206 10,6 C10,3.795 8.206,2 6,2 M6,12 C2.691,12 0,9.309 0,6 C0,2.691 2.691,0 6,0 C9.309,0 12,2.691 12,6 C12,9.309 9.309,12 6,12" id="Fill-1" fill="#000000"></path>
    </g>
</svg>
